symbols/web/wash/materialsymbolssharp/wash_wght500grad200fill1_40px.svg

<svg xmlns="http://www.w3.org/2000/svg" height="40" width="40"><path d="M32.292 12.5q-1.75 0-2.98-1.25-1.229-1.25-1.229-3 0-1.042.646-2.333.646-1.292 1.479-2.5.875-1.375 2.084-2.75 1.208 1.375 2.125 2.75.791 1.166 1.437 2.479.646 1.312.646 2.354 0 1.75-1.208 3-1.209 1.25-3 1.25Zm-9 1.708q-1.042 0-1.771-.75-.729-.75-.729-1.791 0-.542.396-1.25.395-.709.895-1.417.5-.792 1.25-1.583.709.791 1.292 1.583.417.667.833 1.396.417.729.417 1.271 0 1.041-.75 1.791t-1.833.75ZM.208 40.25V21.667L14.833 7.792l2.959 3.041-3.417 5.959h20.083v4.5H20v1.833h18.083v4.5H20v1.792h16.25v4.5H20v1.833h12.667v4.5Z"/></svg>

<svg xmlns="http://www.w3.org/2000/svg" height="40" width="40"><path d="M32.292 12.5Q30.542 12.5 29.312 11.25Q28.083 10 28.083 8.25Q28.083 7.208 28.729 5.917Q29.375 4.625 30.208 3.417Q31.083 2.042 32.292 0.667Q33.5 2.042 34.417 3.417Q35.208 4.583 35.854 5.896Q36.5 7.208 36.5 8.25Q36.5 10 35.292 11.25Q34.083 12.5 32.292 12.5ZM23.292 14.208Q22.25 14.208 21.521 13.458Q20.792 12.708 20.792 11.667Q20.792 11.125 21.188 10.417Q21.583 9.708 22.083 9Q22.583 8.208 23.333 7.417Q24.042 8.208 24.625 9Q25.042 9.667 25.458 10.396Q25.875 11.125 25.875 11.667Q25.875 12.708 25.125 13.458Q24.375 14.208 23.292 14.208ZM0.208 40.25V21.667L14.833 7.792L17.792 10.833L14.375 16.792H34.458V21.292H20V23.125H38.083V27.625H20V29.417H36.25V33.917H20V35.75H32.667V40.25Z"/></svg>
